X: 26277
T: Melina's
R: slip jig
M: 9/8
K: Dmajor
|:dd/d/d de/f/a gae|f2d {B}cdB dAF|G G/G/G GA/B/d def|e3 e{a}ba gfe|
f3 de/f/a gae|f2d {B}cdB dAF|G G/G/G GA/B/d def|1 e3 ~edc d2 A:|2 e3 ~edc d2 e||
|:f3 Adf {d}edc|d2 d Bcd cBA|B2 G GBA GFD|EE/E/E AEB cde|
f3 Adf {d}edc|dd/d/d Bcd cAF|GAB Bcd def|1 e3 eba gfe:|2 e2A ~edc d2 A||

